src/assets/clubs_7.svg

<?xml version="1.0" encoding="UTF-8"?>
<svg xmlns="http://www.w3.org/2000/svg" xmlns:xlink="http://www.w3.org/1999/xlink" width="99px" height="140px" viewBox="0 0 99 140" version="1.1">
<g id="surface1">
<path style="fill-rule:nonzero;fill:rgb(100%,100%,100%);fill-opacity:1;stroke-width:0.756;stroke-linecap:butt;stroke-linejoin:miter;stroke:rgb(50.196078%,50.196078%,50.196078%);stroke-opacity:1;stroke-miterlimit:4;" d="M 9.297538 719.743173 L 224.702368 719.743173 C 229.632765 719.743173 233.621402 723.747721 233.621402 728.681399 L 233.621402 1043.043061 C 233.621402 1047.976739 229.632765 1051.981287 224.702368 1051.981287 L 9.297538 1051.981287 C 4.36714 1051.981287 0.378504 1047.976739 0.378504 1043.043061 L 0.378504 728.681399 C 0.378504 723.747721 4.36714 719.743173 9.297538 719.743173 Z M 9.297538 719.743173 " transform="matrix(0.423077,0,0,0.42042,0.0000199974,-302.434571)"/>
<path style=" stroke:none;fill-rule:nonzero;fill:rgb(0%,0%,0%);fill-opacity:1;" d="M 73.175781 74.867188 L 75.210938 74.867188 L 75.210938 81.914062 L 73.175781 81.914062 Z M 73.175781 74.867188 "/>
<path style=" stroke:none;fill-rule:nonzero;fill:rgb(0%,0%,0%);fill-opacity:1;" d="M 85.390625 71.5 C 86.996094 74.375 85.953125 78.007812 83.066406 79.605469 C 80.179688 81.203125 76.539062 80.167969 74.933594 77.289062 C 74.503906 76.523438 74.253906 75.671875 74.195312 74.796875 C 73.972656 78.085938 71.117188 80.566406 67.820312 80.34375 C 64.527344 80.121094 62.035156 77.273438 62.261719 73.988281 C 62.484375 70.703125 65.335938 68.222656 68.632812 68.445312 C 69.5 68.503906 70.339844 68.75 71.113281 69.167969 C 68.289062 67.476562 67.363281 63.816406 69.058594 60.992188 C 70.753906 58.164062 74.425781 57.242188 77.261719 58.933594 C 80.097656 60.621094 81.023438 64.28125 79.328125 67.109375 C 78.816406 67.960938 78.101562 68.667969 77.253906 69.179688 C 80.144531 67.582031 83.785156 68.621094 85.390625 71.5 Z M 85.390625 71.5 "/>
<path style=" stroke:none;fill-rule:nonzero;fill:rgb(0%,0%,0%);fill-opacity:1;" d="M 23.785156 32.773438 L 25.820312 32.773438 L 25.820312 39.820312 L 23.785156 39.820312 Z M 23.785156 32.773438 "/>
<path style=" stroke:none;fill-rule:nonzero;fill:rgb(0%,0%,0%);fill-opacity:1;" d="M 36 29.40625 C 37.605469 32.285156 36.5625 35.914062 33.675781 37.511719 C 30.789062 39.113281 27.148438 38.074219 25.542969 35.195312 C 25.117188 34.429688 24.863281 33.578125 24.804688 32.703125 C 24.582031 35.992188 21.726562 38.472656 18.429688 38.25 C 15.136719 38.027344 12.644531 35.179688 12.871094 31.894531 C 13.09375 28.609375 15.949219 26.128906 19.242188 26.351562 C 20.109375 26.410156 20.949219 26.65625 21.722656 27.074219 C 18.898438 25.382812 17.972656 21.722656 19.667969 18.898438 C 21.363281 16.070312 25.035156 15.148438 27.871094 16.839844 C 30.707031 18.527344 31.632812 22.1875 29.9375 25.015625 C 29.425781 25.867188 28.710938 26.574219 27.863281 27.085938 C 30.753906 25.488281 34.394531 26.527344 36 29.40625 Z M 36 29.40625 "/>
<path style=" stroke:none;fill-rule:nonzero;fill:rgb(0%,0%,0%);fill-opacity:1;" d="M 6.9375 23.441406 L 7.617188 23.441406 L 7.617188 25.789062 L 6.9375 25.789062 Z M 6.9375 23.441406 "/>
<path style=" stroke:none;fill-rule:nonzero;fill:rgb(0%,0%,0%);fill-opacity:1;" d="M 11.011719 22.316406 C 11.546875 23.277344 11.199219 24.488281 10.238281 25.019531 C 9.273438 25.550781 8.058594 25.207031 7.523438 24.246094 C 7.382812 23.992188 7.296875 23.707031 7.277344 23.417969 C 7.203125 24.511719 6.253906 25.339844 5.15625 25.265625 C 4.054688 25.191406 3.226562 24.242188 3.300781 23.148438 C 3.375 22.050781 4.328125 21.226562 5.425781 21.300781 C 5.714844 21.320312 5.996094 21.402344 6.25 21.539062 C 5.308594 20.976562 5.003906 19.757812 5.566406 18.8125 C 6.132812 17.871094 7.355469 17.566406 8.300781 18.128906 C 9.246094 18.691406 9.554688 19.910156 8.988281 20.855469 C 8.820312 21.136719 8.582031 21.375 8.296875 21.542969 C 9.261719 21.011719 10.476562 21.359375 11.011719 22.316406 Z M 11.011719 22.316406 "/>
<path style=" stroke:none;fill-rule:nonzero;fill:rgb(0%,0%,0%);fill-opacity:1;" d="M 11.261719 4.945312 L 7.902344 14.816406 C 7.8125 15.070312 7.589844 15.199219 7.226562 15.199219 L 5.90625 15.199219 C 5.632812 15.199219 5.496094 15.117188 5.496094 14.957031 C 5.496094 14.800781 6.058594 13.226562 7.179688 10.230469 C 7.835938 8.507812 8.484375 6.785156 9.132812 5.0625 L 5.183594 5.0625 C 5.167969 5.308594 5.113281 5.664062 5.023438 6.132812 C 4.941406 6.183594 4.851562 6.207031 4.757812 6.207031 L 3.722656 6.207031 C 3.4375 6.207031 3.296875 6.109375 3.296875 5.914062 C 3.296875 5.820312 3.382812 4.945312 3.554688 3.285156 L 11.261719 3.285156 Z M 11.261719 4.945312 "/>
<path style=" stroke:none;fill-rule:nonzero;fill:rgb(0%,0%,0%);fill-opacity:1;" d="M 91.621094 116.558594 L 92.300781 116.558594 L 92.300781 114.210938 L 91.621094 114.210938 Z M 91.621094 116.558594 "/>
<path style=" stroke:none;fill-rule:nonzero;fill:rgb(0%,0%,0%);fill-opacity:1;" d="M 95.691406 117.683594 C 96.226562 116.722656 95.882812 115.511719 94.917969 114.980469 C 93.957031 114.449219 92.742188 114.792969 92.207031 115.753906 C 92.066406 116.007812 91.980469 116.292969 91.960938 116.582031 C 91.886719 115.488281 90.9375 114.660156 89.835938 114.734375 C 88.738281 114.808594 87.910156 115.757812 87.984375 116.851562 C 88.058594 117.949219 89.007812 118.773438 90.109375 118.699219 C 90.394531 118.679688 90.675781 118.597656 90.933594 118.460938 C 89.992188 119.023438 89.683594 120.242188 90.25 121.1875 C 90.8125 122.128906 92.039062 122.433594 92.984375 121.871094 C 93.929688 121.308594 94.238281 120.089844 93.671875 119.144531 C 93.5 118.863281 93.265625 118.625 92.980469 118.457031 C 93.945312 118.988281 95.160156 118.640625 95.691406 117.683594 Z M 95.691406 117.683594 "/>
<path style=" stroke:none;fill-rule:nonzero;fill:rgb(0%,0%,0%);fill-opacity:1;" d="M 87.738281 135.054688 L 91.097656 125.183594 C 91.1875 124.929688 91.410156 124.800781 91.773438 124.800781 L 93.09375 124.800781 C 93.367188 124.800781 93.503906 124.882812 93.503906 125.042969 C 93.503906 125.199219 92.941406 126.773438 91.820312 129.769531 C 91.164062 131.492188 90.515625 133.214844 89.867188 134.9375 L 93.816406 134.9375 C 93.832031 134.691406 93.886719 134.335938 93.976562 133.867188 C 94.058594 133.816406 94.148438 133.792969 94.242188 133.792969 L 95.277344 133.792969 C 95.5625 133.792969 95.703125 133.890625 95.703125 134.085938 C 95.703125 134.179688 95.617188 135.054688 95.445312 136.714844 L 87.738281 136.714844 Z M 87.738281 135.054688 "/>
<path style=" stroke:none;fill-rule:nonzero;fill:rgb(0%,0%,0%);fill-opacity:1;" d="M 48.480469 53.820312 L 50.515625 53.820312 L 50.515625 60.867188 L 48.480469 60.867188 Z M 48.480469 53.820312 "/>
<path style=" stroke:none;fill-rule:nonzero;fill:rgb(0%,0%,0%);fill-opacity:1;" d="M 60.695312 50.453125 C 62.300781 53.332031 61.257812 56.960938 58.371094 58.558594 C 55.484375 60.15625 51.84375 59.121094 50.238281 56.242188 C 49.808594 55.476562 49.558594 54.625 49.5 53.75 C 49.277344 57.039062 46.421875 59.519531 43.125 59.296875 C 39.832031 59.074219 37.339844 56.226562 37.566406 52.941406 C 37.789062 49.65625 40.640625 47.175781 43.9375 47.398438 C 44.804688 47.457031 45.644531 47.703125 46.417969 48.121094 C 43.59375 46.429688 42.667969 42.769531 44.363281 39.945312 C 46.058594 37.117188 49.730469 36.195312 52.566406 37.886719 C 55.402344 39.574219 56.328125 43.234375 54.632812 46.0625 C 54.121094 46.914062 53.40625 47.621094 52.558594 48.132812 C 55.449219 46.535156 59.089844 47.574219 60.695312 50.453125 Z M 60.695312 50.453125 "/>
<path style=" stroke:none;fill-rule:nonzero;fill:rgb(0%,0%,0%);fill-opacity:1;" d="M 73.175781 32.773438 L 75.210938 32.773438 L 75.210938 39.820312 L 73.175781 39.820312 Z M 73.175781 32.773438 "/>
<path style=" stroke:none;fill-rule:nonzero;fill:rgb(0%,0%,0%);fill-opacity:1;" d="M 85.390625 29.40625 C 86.996094 32.285156 85.953125 35.914062 83.066406 37.511719 C 80.179688 39.113281 76.539062 38.074219 74.933594 35.195312 C 74.503906 34.429688 74.253906 33.578125 74.195312 32.703125 C 73.972656 35.992188 71.117188 38.472656 67.820312 38.25 C 64.527344 38.027344 62.035156 35.179688 62.261719 31.894531 C 62.484375 28.609375 65.335938 26.128906 68.632812 26.351562 C 69.5 26.410156 70.339844 26.65625 71.113281 27.074219 C 68.289062 25.382812 67.363281 21.722656 69.058594 18.898438 C 70.753906 16.070312 74.425781 15.148438 77.261719 16.839844 C 80.097656 18.527344 81.023438 22.1875 79.328125 25.015625 C 78.816406 25.867188 78.101562 26.574219 77.253906 27.085938 C 80.144531 25.488281 83.785156 26.527344 85.390625 29.40625 Z M 85.390625 29.40625 "/>
<path style=" stroke:none;fill-rule:nonzero;fill:rgb(0%,0%,0%);fill-opacity:1;" d="M 23.785156 74.867188 L 25.820312 74.867188 L 25.820312 81.914062 L 23.785156 81.914062 Z M 23.785156 74.867188 "/>
<path style=" stroke:none;fill-rule:nonzero;fill:rgb(0%,0%,0%);fill-opacity:1;" d="M 36 71.5 C 37.605469 74.375 36.5625 78.007812 33.675781 79.605469 C 30.789062 81.203125 27.148438 80.167969 25.542969 77.289062 C 25.117188 76.523438 24.863281 75.671875 24.804688 74.796875 C 24.582031 78.085938 21.726562 80.566406 18.429688 80.34375 C 15.136719 80.121094 12.644531 77.273438 12.871094 73.988281 C 13.09375 70.703125 15.949219 68.222656 19.242188 68.445312 C 20.109375 68.503906 20.949219 68.75 21.722656 69.167969 C 18.898438 67.476562 17.972656 63.816406 19.667969 60.992188 C 21.363281 58.164062 25.035156 57.242188 27.871094 58.933594 C 30.707031 60.621094 31.632812 64.28125 29.9375 67.109375 C 29.425781 67.960938 28.710938 68.667969 27.863281 69.179688 C 30.753906 67.582031 34.394531 68.621094 36 71.5 Z M 36 71.5 "/>
<path style=" stroke:none;fill-rule:nonzero;fill:rgb(0%,0%,0%);fill-opacity:1;" d="M 23.785156 107.226562 L 25.820312 107.226562 L 25.820312 100.179688 L 23.785156 100.179688 Z M 23.785156 107.226562 "/>
<path style=" stroke:none;fill-rule:nonzero;fill:rgb(0%,0%,0%);fill-opacity:1;" d="M 36 110.59375 C 37.605469 107.714844 36.5625 104.085938 33.675781 102.488281 C 30.789062 100.886719 27.148438 101.925781 25.542969 104.804688 C 25.117188 105.570312 24.863281 106.421875 24.804688 107.296875 C 24.582031 104.007812 21.726562 101.527344 18.429688 101.75 C 15.136719 101.972656 12.644531 104.820312 12.871094 108.101562 C 13.09375 111.386719 15.949219 113.871094 19.242188 113.648438 C 20.109375 113.589844 20.949219 113.34375 21.722656 112.925781 C 18.898438 114.617188 17.972656 118.277344 19.667969 121.101562 C 21.363281 123.929688 25.035156 124.851562 27.871094 123.160156 C 30.707031 121.472656 31.632812 117.8125 29.9375 114.984375 C 29.425781 114.132812 28.710938 113.425781 27.863281 112.914062 C 30.753906 114.511719 34.394531 113.472656 36 110.59375 Z M 36 110.59375 "/>
<path style=" stroke:none;fill-rule:nonzero;fill:rgb(0%,0%,0%);fill-opacity:1;" d="M 73.175781 107.226562 L 75.210938 107.226562 L 75.210938 100.179688 L 73.175781 100.179688 Z M 73.175781 107.226562 "/>
<path style=" stroke:none;fill-rule:nonzero;fill:rgb(0%,0%,0%);fill-opacity:1;" d="M 85.390625 110.59375 C 86.996094 107.714844 85.953125 104.085938 83.066406 102.488281 C 80.179688 100.886719 76.539062 101.925781 74.933594 104.804688 C 74.503906 105.570312 74.253906 106.421875 74.195312 107.296875 C 73.972656 104.007812 71.117188 101.527344 67.820312 101.75 C 64.527344 101.972656 62.035156 104.820312 62.261719 108.101562 C 62.484375 111.386719 65.335938 113.871094 68.632812 113.648438 C 69.5 113.589844 70.339844 113.34375 71.113281 112.925781 C 68.289062 114.617188 67.363281 118.277344 69.058594 121.101562 C 70.753906 123.929688 74.425781 124.851562 77.261719 123.160156 C 80.097656 121.472656 81.023438 117.8125 79.328125 114.984375 C 78.816406 114.132812 78.101562 113.425781 77.253906 112.914062 C 80.144531 114.511719 83.785156 113.472656 85.390625 110.59375 Z M 85.390625 110.59375 "/>
</g>
</svg>

<svg xmlns="http://www.w3.org/2000/svg" width="99" height="140"><path d="M9.298 719.743h215.404c4.93 0 8.92 4.005 8.92 8.938v314.362c0 4.934-3.99 8.938-8.92 8.938H9.298c-4.93 0-8.92-4.004-8.92-8.938V728.681c0-4.933 3.99-8.938 8.92-8.938Zm0 0" style="fill-rule:nonzero;fill:#fff;fill-opacity:1;stroke-width:.756;stroke-linecap:butt;stroke-linejoin:miter;stroke:gray;stroke-opacity:1;stroke-miterlimit:4" transform="matrix(.42308 0 0 .42042 0 -302.435)"/><path d="M73.176 74.867h2.035v7.047h-2.035Zm0 0" style="stroke:none;fill-rule:nonzero;fill:#000;fill-opacity:1"/><path d="M85.39 71.5c1.606 2.875.563 6.508-2.324 8.105-2.886 1.598-6.527.563-8.132-2.316a5.894 5.894 0 0 1-.739-2.492c-.222 3.289-3.078 5.77-6.375 5.547-3.293-.223-5.785-3.07-5.558-6.356.222-3.285 3.074-5.765 6.37-5.543a6.063 6.063 0 0 1 2.481.723c-2.824-1.691-3.75-5.352-2.054-8.176a5.99 5.99 0 0 1 8.203-2.058 5.95 5.95 0 0 1 2.066 8.175 6.08 6.08 0 0 1-2.074 2.07c2.89-1.597 6.531-.558 8.137 2.321ZM23.785 32.773h2.035v7.047h-2.035Zm0 0" style="stroke:none;fill-rule:nonzero;fill:#000;fill-opacity:1"/><path d="M36 29.406a5.95 5.95 0 0 1-2.324 8.106 5.989 5.989 0 0 1-8.133-2.317 5.95 5.95 0 0 1-.738-2.492c-.223 3.29-3.078 5.77-6.375 5.547-3.293-.223-5.785-3.07-5.559-6.355.223-3.286 3.078-5.766 6.371-5.543a6.063 6.063 0 0 1 2.48.722c-2.824-1.691-3.75-5.351-2.054-8.176a5.99 5.99 0 0 1 8.203-2.058 5.95 5.95 0 0 1 2.067 8.176 6.08 6.08 0 0 1-2.075 2.07c2.89-1.598 6.532-.559 8.137 2.32ZM6.938 23.441h.68v2.348h-.68Zm0 0" style="stroke:none;fill-rule:nonzero;fill:#000;fill-opacity:1"/><path d="M11.012 22.316c.535.961.187 2.172-.774 2.704a2.002 2.002 0 0 1-2.715-.774 1.997 1.997 0 0 1-.246-.828 1.99 1.99 0 0 1-2.12 1.848A1.99 1.99 0 0 1 3.3 23.148a1.99 1.99 0 0 1 2.125-1.847c.289.02.57.101.824.238a1.988 1.988 0 0 1-.684-2.727 1.998 1.998 0 0 1 2.735-.683 1.982 1.982 0 0 1-.004 3.414 2.005 2.005 0 0 1 2.715.773ZM11.262 4.945l-3.36 9.871c-.09.254-.312.383-.675.383h-1.32c-.274 0-.41-.082-.41-.242 0-.156.562-1.73 1.683-4.727.656-1.722 1.304-3.445 1.953-5.168h-3.95c-.015.247-.07.602-.16 1.07a.497.497 0 0 1-.265.075H3.723c-.285 0-.426-.098-.426-.293 0-.094.086-.969.258-2.629h7.707ZM91.621 116.559h.68v-2.348h-.68Zm0 0" style="stroke:none;fill-rule:nonzero;fill:#000;fill-opacity:1"/><path d="M95.691 117.684a1.981 1.981 0 0 0-.773-2.704 1.998 1.998 0 0 0-2.711.774c-.14.254-.227.539-.246.828a1.99 1.99 0 0 0-2.125-1.848 1.988 1.988 0 1 0 .273 3.965c.286-.02.567-.101.825-.238a1.985 1.985 0 0 0-.684 2.727 1.997 1.997 0 0 0 2.734.683 1.982 1.982 0 0 0-.004-3.414 2 2 0 0 0 2.711-.773ZM87.738 135.055l3.36-9.871c.09-.254.312-.383.675-.383h1.32c.274 0 .41.082.41.242 0 .156-.562 1.73-1.683 4.727-.656 1.722-1.304 3.445-1.953 5.167h3.95c.015-.246.07-.601.16-1.07a.497.497 0 0 1 .265-.074h1.035c.285 0 .426.098.426.293 0 .094-.086.969-.258 2.629h-7.707ZM48.48 53.82h2.036v7.047H48.48Zm0 0" style="stroke:none;fill-rule:nonzero;fill:#000;fill-opacity:1"/><path d="M60.695 50.453a5.95 5.95 0 0 1-2.324 8.106c-2.887 1.597-6.527.562-8.133-2.317a5.894 5.894 0 0 1-.738-2.492c-.223 3.29-3.078 5.77-6.375 5.547-3.293-.223-5.785-3.07-5.559-6.356.223-3.285 3.075-5.765 6.371-5.543a6.063 6.063 0 0 1 2.481.723c-2.824-1.691-3.75-5.351-2.055-8.176a5.99 5.99 0 0 1 8.203-2.058 5.95 5.95 0 0 1 2.067 8.175 6.08 6.08 0 0 1-2.074 2.07c2.89-1.597 6.53-.558 8.136 2.321ZM73.176 32.773h2.035v7.047h-2.035Zm0 0" style="stroke:none;fill-rule:nonzero;fill:#000;fill-opacity:1"/><path d="M85.39 29.406a5.95 5.95 0 0 1-2.324 8.106 5.989 5.989 0 0 1-8.132-2.317 5.894 5.894 0 0 1-.739-2.492c-.222 3.29-3.078 5.77-6.375 5.547-3.293-.223-5.785-3.07-5.558-6.355.222-3.286 3.074-5.766 6.37-5.543a6.063 6.063 0 0 1 2.481.722c-2.824-1.691-3.75-5.351-2.054-8.176a5.99 5.99 0 0 1 8.203-2.058 5.95 5.95 0 0 1 2.066 8.176 6.08 6.08 0 0 1-2.074 2.07c2.89-1.598 6.531-.559 8.137 2.32ZM23.785 74.867h2.035v7.047h-2.035Zm0 0" style="stroke:none;fill-rule:nonzero;fill:#000;fill-opacity:1"/><path d="M36 71.5c1.605 2.875.563 6.508-2.324 8.105-2.887 1.598-6.528.563-8.133-2.316a5.95 5.95 0 0 1-.738-2.492c-.223 3.289-3.078 5.77-6.375 5.547-3.293-.223-5.785-3.07-5.559-6.356.223-3.285 3.078-5.765 6.371-5.543a6.063 6.063 0 0 1 2.48.723c-2.824-1.691-3.75-5.352-2.054-8.176a5.99 5.99 0 0 1 8.203-2.058 5.95 5.95 0 0 1 2.067 8.175 6.08 6.08 0 0 1-2.075 2.07c2.89-1.597 6.532-.558 8.137 2.321ZM23.785 107.227h2.035v-7.047h-2.035Zm0 0" style="stroke:none;fill-rule:nonzero;fill:#000;fill-opacity:1"/><path d="M36 110.594a5.95 5.95 0 0 0-2.324-8.106 5.989 5.989 0 0 0-8.133 2.317 5.95 5.95 0 0 0-.738 2.492c-.223-3.29-3.078-5.77-6.375-5.547-3.293.223-5.785 3.07-5.559 6.352.223 3.285 3.078 5.77 6.371 5.546a6.063 6.063 0 0 0 2.48-.722c-2.824 1.691-3.75 5.351-2.054 8.176a5.99 5.99 0 0 0 8.203 2.058 5.95 5.95 0 0 0 2.067-8.176 6.08 6.08 0 0 0-2.075-2.07c2.89 1.598 6.532.559 8.137-2.32ZM73.176 107.227h2.035v-7.047h-2.035Zm0 0" style="stroke:none;fill-rule:nonzero;fill:#000;fill-opacity:1"/><path d="M85.39 110.594a5.95 5.95 0 0 0-2.324-8.106 5.989 5.989 0 0 0-8.132 2.317 5.894 5.894 0 0 0-.739 2.492c-.222-3.29-3.078-5.77-6.375-5.547-3.293.223-5.785 3.07-5.558 6.352.222 3.285 3.074 5.77 6.37 5.546a6.063 6.063 0 0 0 2.481-.722c-2.824 1.691-3.75 5.351-2.054 8.176a5.99 5.99 0 0 0 8.203 2.058 5.95 5.95 0 0 0 2.066-8.176 6.08 6.08 0 0 0-2.074-2.07c2.89 1.598 6.531.559 8.137-2.32Zm0 0" style="stroke:none;fill-rule:nonzero;fill:#000;fill-opacity:1"/></svg>
